X: 8156
T: Cook In The Kitchen, The
R: jig
M: 6/8
K: Gmajor
|:DGG GAG|FDE =F2E|D2G GFG|A2 d cAG|
DGG GAG|FDE =F2 d|cAG FGA|1 AGF G2E:|2 AGF G2A||
|:B3 BAG|A3 AGE|DGG GFG|A2 d cAG|
B3 BAG|ABA A2 d|cAG FGA|1 AGF G2A:|2 AGF G2B:|
|:d2 e f2 g|a2 g fed|cAG FGA|BGB cAF|
d2 e f2 g|a2 g fed|cAG FGA|1 AGF G2B:|2 AGF G2E||

